X:293
T:Le dindon
R:Valse
A:Aquitaine
O:France
M:3/4
L:1/4
Q:1/4=190
K:C
GEG|c2c|ce>d|A2A|Afd|B2G|GAB|c2z|
|GG>G|A3|GG>G|F2z|FGF|d2F|FED|E2z||
